src/assets/icons/more.svg

<svg width="28" height="29" viewBox="0 0 28 29" fill="none" xmlns="http://www.w3.org/2000/svg">
<mask id="mask0_6_410" style="mask-type:alpha" maskUnits="userSpaceOnUse" x="0" y="0" width="28" height="29">
<rect y="0.768066" width="28" height="28" fill="#C4C4C4"/>
</mask>
<g mask="url(#mask0_6_410)">
<path d="M18.9582 12.4348C17.8323 12.4348 16.9165 13.3529 16.9165 14.4764C16.9165 15.5999 17.8312 16.5181 18.9582 16.5181C20.0828 16.5181 20.9998 15.6011 20.9998 14.4764C20.9998 13.3518 20.0828 12.4348 18.9582 12.4348ZM18.9582 15.3514C18.4752 15.3514 18.0832 14.9594 18.0832 14.4764C18.0832 13.9946 18.4763 13.6014 18.9582 13.6014C19.44 13.6014 19.8332 13.9934 19.8332 14.4764C19.8332 14.9583 19.4412 15.3514 18.9582 15.3514ZM13.7082 12.4348C12.5812 12.4348 11.6665 13.3529 11.6665 14.4764C11.6665 15.5999 12.5823 16.5181 13.7082 16.5181C14.834 16.5181 15.7498 15.6011 15.7498 14.4764C15.7498 13.3518 14.8352 12.4348 13.7082 12.4348ZM13.7082 15.3514C13.2252 15.3514 12.8332 14.9594 12.8332 14.4764C12.8332 13.9946 13.2263 13.6014 13.7082 13.6014C14.19 13.6014 14.5832 13.9934 14.5832 14.4764C14.5832 14.9583 14.1912 15.3514 13.7082 15.3514ZM8.45817 12.4348C7.33234 12.4348 6.4165 13.3529 6.4165 14.4764C6.4165 15.5999 7.33234 16.5181 8.45817 16.5181C9.58284 16.5181 10.4998 15.6011 10.4998 14.4764C10.4998 13.3518 9.58167 12.4348 8.45817 12.4348ZM8.45817 15.3514C7.97517 15.3514 7.58317 14.9594 7.58317 14.4764C7.58317 13.9946 7.97634 13.6014 8.45817 13.6014C8.94 13.6014 9.33317 13.9934 9.33317 14.4764C9.33317 14.9583 8.94117 15.3514 8.45817 15.3514Z" fill="black"/>
<path d="M13.7082 27.0181C6.79217 27.0181 1.1665 21.3924 1.1665 14.4764C1.1665 7.56042 6.79217 1.93475 13.7082 1.93475C20.6242 1.93475 26.2498 7.56042 26.2498 14.4764C26.2498 21.3924 20.6242 27.0181 13.7082 27.0181ZM13.7082 3.68475C7.75817 3.68475 2.9165 8.52642 2.9165 14.4764C2.9165 20.4264 7.75817 25.2681 13.7082 25.2681C19.6582 25.2681 24.4998 20.4264 24.4998 14.4764C24.4998 8.52642 19.6582 3.68475 13.7082 3.68475Z" fill="black"/>
</g>
</svg>

<svg width="28" height="29" fill="none" xmlns="http://www.w3.org/2000/svg"><mask id="a" style="mask-type:alpha" maskUnits="userSpaceOnUse" x="0" y="0" width="28" height="29"><path fill="#C4C4C4" d="M0 .768h28v28H0z"/></mask><g mask="url(#a)" fill="#000"><path d="M18.958 12.435a2.045 2.045 0 0 0-2.041 2.041c0 1.124.914 2.042 2.041 2.042A2.045 2.045 0 0 0 21 14.476a2.045 2.045 0 0 0-2.042-2.041zm0 2.916a.875.875 0 1 1 0-1.75.875.875 0 0 1 0 1.75zm-5.25-2.916a2.045 2.045 0 0 0-2.042 2.041c0 1.124.916 2.042 2.042 2.042a2.045 2.045 0 0 0 2.042-2.042 2.044 2.044 0 0 0-2.042-2.041zm0 2.916a.875.875 0 1 1 0-1.75.875.875 0 0 1 0 1.75zm-5.25-2.916a2.045 2.045 0 0 0-2.042 2.041c0 1.124.916 2.042 2.042 2.042a2.045 2.045 0 0 0 2.042-2.042 2.046 2.046 0 0 0-2.042-2.041zm0 2.916a.875.875 0 1 1 0-1.75.875.875 0 0 1 0 1.75z"/><path d="M13.708 27.018c-6.916 0-12.541-5.626-12.541-12.542 0-6.916 5.625-12.541 12.541-12.541S26.25 7.56 26.25 14.476s-5.626 12.542-12.542 12.542zm0-23.333c-5.95 0-10.791 4.841-10.791 10.791s4.841 10.792 10.791 10.792S24.5 20.426 24.5 14.476 19.658 3.685 13.708 3.685z"/></g></svg>
